public/assets/images/icons/grey/remove/globe.svg

<svg width="16" height="16" xmlns="http://www.w3.org/2000/svg" viewBox="0 0 16 16" shape-rendering="geometricPrecision" fill="#6e6e6e"><defs><mask id="a"><rect fill="#fff" width="100%" height="100%"/><path fill="#000" d="M8.986 1.143H17v3.565H8.986z"/></mask></defs><path d="M9.986 2.143H16v1.565H9.986z" fill="#cb1800"/><path mask="url(#a)" d="M7.999.97a7.03 7.03 0 0 0 0 14.06 7.03 7.03 0 1 0 0-14.06zM8.5 6.156c.493-.019 1-.064 1.496-.124.042.456.069.946.082 1.468H8.5V6.156zm0-1.001V2.418c.299.027.589.08.872.152.134.448.348 1.302.512 2.468-.462.056-.931.098-1.384.117zm-1-.001c-.443-.02-.908-.063-1.371-.12.163-1.18.379-2.028.514-2.468a5.52 5.52 0 0 1 .857-.148v2.736zm0 1.001V7.5H5.938c.013-.525.039-1.017.08-1.472.498.061 1.001.107 1.482.127zM4.938 7.5h-2.52a5.582 5.582 0 0 1 .569-1.997c.505.11 1.231.256 2.038.385A24.607 24.607 0 0 0 4.938 7.5zm-.002 1c.012.611.043 1.181.092 1.707-.791.125-1.497.268-1.998.379A5.572 5.572 0 0 1 2.418 8.5h2.518zm1 0H7.5v1.447c-.487.019-.989.063-1.48.121A22.181 22.181 0 0 1 5.936 8.5zM7.5 10.949v2.633a5.64 5.64 0 0 1-.886-.155c-.135-.47-.33-1.286-.481-2.363.457-.055.92-.096 1.367-.115zm1 .001c.448.02.919.064 1.387.122a16.738 16.738 0 0 1-.479 2.348 5.564 5.564 0 0 1-.908.162V10.95zm0-1.001V8.5h1.581c-.011.566-.04 1.092-.083 1.578A18.585 18.585 0 0 0 8.5 9.949zM11.082 8.5h2.5a5.576 5.576 0 0 1-.614 2.09 37.347 37.347 0 0 0-1.976-.372c.047-.527.079-1.099.09-1.718zm-.003-1a23.764 23.764 0 0 0-.09-1.606 34.153 34.153 0 0 0 2.025-.386 5.6 5.6 0 0 1 .568 1.993h-2.503zm1.372-2.895c-.438.092-.982.198-1.577.293a19.775 19.775 0 0 0-.353-1.899c.76.385 1.418.935 1.93 1.606zM5.49 2.993c-.12.487-.246 1.127-.352 1.899A38.166 38.166 0 0 1 3.552 4.6 5.64 5.64 0 0 1 5.49 2.993zm-1.875 8.492c.43-.09.957-.191 1.528-.282.1.716.216 1.319.329 1.795a5.615 5.615 0 0 1-1.857-1.513zm6.942 1.499c.112-.469.225-1.061.323-1.769.557.09 1.075.188 1.501.275a5.631 5.631 0 0 1-1.824 1.494z"/></svg>

<?xml version="1.0"?><!DOCTYPE svg PUBLIC "-//W3C//DTD SVG 1.1//EN" "http://www.w3.org/Graphics/SVG/1.1/DTD/svg11.dtd"><svg width="16px" height="16px" xmlns="http://www.w3.org/2000/svg" viewBox="0 0 16 16" shape-rendering="geometricPrecision" fill="#6e6e6e"><defs><mask id="remove-path"><rect fill="#fff" width="100%" height="100%"/><rect x="8.986" y="1.143" width="8.014" height="3.565" fill="#000"/></mask></defs><g fill="#cb1800"><rect x="9.986" y="2.143" width="6.014" height="1.565"/></g><path mask="url(#remove-path)" d="M7.999,0.97c-3.882,0-7.029,3.147-7.029,7.033 c0.001,3.881,3.147,7.025,7.029,7.027c3.883-0.002,7.031-3.146,7.031-7.027C15.03,4.116,11.882,0.97,7.999,0.97z M8.5,6.156 c0.493-0.019,1-0.064,1.496-0.124c0.042,0.456,0.069,0.946,0.082,1.468H8.5V6.156z M8.5,5.155V2.418 C8.799,2.445,9.089,2.498,9.372,2.57C9.506,3.018,9.72,3.872,9.884,5.038C9.422,5.094,8.953,5.136,8.5,5.155z M7.5,5.154 c-0.443-0.02-0.908-0.063-1.371-0.12c0.163-1.18,0.379-2.028,0.514-2.468C6.922,2.496,7.207,2.444,7.5,2.418V5.154z M7.5,6.155V7.5 H5.938c0.013-0.525,0.039-1.017,0.08-1.472C6.516,6.089,7.019,6.135,7.5,6.155z M4.938,7.5h-2.52 c0.064-0.713,0.264-1.386,0.569-1.997c0.505,0.11,1.231,0.256,2.038,0.385C4.981,6.385,4.951,6.923,4.938,7.5z M4.936,8.5 c0.012,0.611,0.043,1.181,0.092,1.707c-0.791,0.125-1.497,0.268-1.998,0.379C2.699,9.952,2.485,9.248,2.418,8.5H4.936z M5.936,8.5 H7.5v1.447c-0.487,0.019-0.989,0.063-1.48,0.121C5.976,9.584,5.947,9.06,5.936,8.5z M7.5,10.949v2.633 c-0.303-0.027-0.598-0.082-0.886-0.155c-0.135-0.47-0.33-1.286-0.481-2.363C6.59,11.009,7.053,10.968,7.5,10.949z M8.5,10.95 c0.448,0.02,0.919,0.064,1.387,0.122c-0.149,1.08-0.343,1.884-0.479,2.348c-0.295,0.077-0.597,0.134-0.908,0.162V10.95z M8.5,9.949 V8.5h1.581c-0.011,0.566-0.04,1.092-0.083,1.578C9.496,10.016,8.987,9.969,8.5,9.949z M11.082,8.5h2.5 c-0.067,0.749-0.282,1.455-0.614,2.09c-0.499-0.108-1.199-0.248-1.976-0.372C11.039,9.691,11.071,9.119,11.082,8.5z M11.079,7.5 c-0.014-0.573-0.044-1.11-0.09-1.606c0.808-0.128,1.525-0.275,2.025-0.386c0.304,0.61,0.503,1.281,0.568,1.993H11.079z M12.451,4.605c-0.438,0.092-0.982,0.198-1.577,0.293c-0.107-0.766-0.234-1.409-0.353-1.899 C11.281,3.384,11.939,3.934,12.451,4.605z M5.49,2.993C5.37,3.48,5.244,4.12,5.138,4.892C4.543,4.796,3.995,4.691,3.552,4.6 C4.067,3.928,4.728,3.377,5.49,2.993z M3.615,11.485c0.43-0.09,0.957-0.191,1.528-0.282c0.1,0.716,0.216,1.319,0.329,1.795 C4.748,12.631,4.115,12.114,3.615,11.485z M10.557,12.984c0.112-0.469,0.225-1.061,0.323-1.769c0.557,0.09,1.075,0.188,1.501,0.275 C11.887,12.109,11.266,12.619,10.557,12.984z"/></svg>
